Obsidian/actions/24s/kdenlive-show-markers.svg

<svg height="24" viewBox="0 0 24 24" width="24" xmlns="http://www.w3.org/2000/svg"><path d="m1 1.015625v14h14v-14zm3.4335938 5.8339844h2.3242187c.0560004 0 .0891164.024425.1015625.0742187l2.0449219 6.0859379c.0124461.031127.0089012.062483-.0097657.09375-.0186667.031267-.0501956.046875-.09375.046875h-1.8945312c-.0186668 0-.0415234-.006932-.0664062-.019532-.0186669-.018666-.0308887-.039715-.0371094-.064453l-.4375-1.40039h-1.5878906c-.0560005.236461-.1171004.472569-.1855469.708984-.0622211.230255-.121734.461184-.1777344.691406-.0121334.056001-.0487943.083985-.1113281.083985h-1.7929688c-.0435543 0-.0750832-.015608-.09375-.046875-.0186668-.031127-.0202586-.062483-.0078125-.09375l1.9238281-6.0859379c.0121335-.0499337.0455621-.0742187.1015626-.0742187zm1.0917968 1.625c-.0062207.0310802-.0148976.0679278-.0273437.1113281-.0062254.0435403-.0133106.0800566-.0195313.1113281-.0248875.1057941-.0512843.2090531-.0761718.3085938-.0248876.093334-.0509184.1824506-.0820313.2695312h.0078125c-.0435543.1804613-.0837601.3361293-.1210938.4667969-.0373335.1306676-.0810796.2863825-.1308593.4667965h.9804687c-.0497797-.155541-.0970707-.3112087-.140625-.4667965-.0435543-.1617478-.0888922-.3174625-.1386718-.4667969-.0311129-.0995407-.069727-.2044054-.1132813-.3164062-.0373336-.1120008-.0704496-.2203778-.1015625-.3261719l.0097656.0097656c-.0124461-.043447-.0230761-.0701051-.0292968-.0761719 0-.0126.0035449-.0175781.0097656-.0175781l-.0097656-.0097656c0-.0124134-.0051321-.0331862-.0175782-.0644531zm5.1542974 3.2753906a.700005.700005 0 0 1 .701171.699219.700005.700005 0 0 1 -.701171.701172.700005.700005 0 0 1 -.6992192-.701172.700005.700005 0 0 1 .6992192-.699219zm2.220703 0a.700005.700005 0 0 1 .699218.699219.700005.700005 0 0 1 -.699218.701172.700005.700005 0 0 1 -.701172-.701172.700005.700005 0 0 1 .701172-.699219z" fill="#bebebe" transform="translate(4 4)"/></svg>

<svg xmlns="http://www.w3.org/2000/svg" width="24" height="24" viewBox="0 0 24 24">
 <defs>
  <style id="current-color-scheme" type="text/css">
   .ColorScheme-Text { color:#bebebe; } .ColorScheme-Highlight { color:#4285f4; }
  </style>
 </defs>
 <path style="fill:currentColor" class="ColorScheme-Text" d="M 1 1.015625 L 1 15.015625 L 15 15.015625 L 15 1.015625 L 1 1.015625 z M 4.4335938 6.8496094 L 6.7578125 6.8496094 C 6.8138129 6.8496094 6.8469289 6.8740344 6.859375 6.9238281 L 8.9042969 13.009766 C 8.916743 13.040893 8.9131981 13.072249 8.8945312 13.103516 C 8.8758645 13.134783 8.8443356 13.150391 8.8007812 13.150391 L 6.90625 13.150391 C 6.8875832 13.150391 6.8647266 13.143459 6.8398438 13.130859 C 6.8211769 13.112193 6.8089551 13.091144 6.8027344 13.066406 L 6.3652344 11.666016 L 4.7773438 11.666016 C 4.7213433 11.902477 4.6602434 12.138585 4.5917969 12.375 C 4.5295758 12.605255 4.4700629 12.836184 4.4140625 13.066406 C 4.4019291 13.122407 4.3652682 13.150391 4.3027344 13.150391 L 2.5097656 13.150391 C 2.4662113 13.150391 2.4346824 13.134783 2.4160156 13.103516 C 2.3973488 13.072389 2.395757 13.041033 2.4082031 13.009766 L 4.3320312 6.9238281 C 4.3441647 6.8738944 4.3775933 6.8496094 4.4335938 6.8496094 z M 5.5253906 8.4746094 C 5.5191699 8.5056896 5.510493 8.5425372 5.4980469 8.5859375 C 5.4918215 8.6294778 5.4847363 8.6659941 5.4785156 8.6972656 C 5.4536281 8.8030597 5.4272313 8.9063187 5.4023438 9.0058594 C 5.3774562 9.0991934 5.3514254 9.18831 5.3203125 9.2753906 L 5.328125 9.2753906 C 5.2845707 9.4558519 5.2443649 9.6115199 5.2070312 9.7421875 C 5.1696977 9.8728551 5.1259516 10.02857 5.0761719 10.208984 L 6.0566406 10.208984 C 6.0068609 10.053443 5.9595699 9.8977753 5.9160156 9.7421875 C 5.8724613 9.5804397 5.8271234 9.424725 5.7773438 9.2753906 C 5.7462309 9.1758499 5.7076168 9.0709852 5.6640625 8.9589844 C 5.6267289 8.8469836 5.5936129 8.7386066 5.5625 8.6328125 L 5.5722656 8.6425781 C 5.5598195 8.5991311 5.5491895 8.572473 5.5429688 8.5664062 C 5.5429688 8.5538062 5.5465137 8.5488281 5.5527344 8.5488281 L 5.5429688 8.5390625 C 5.5429688 8.5266491 5.5378367 8.5058763 5.5253906 8.4746094 z M 10.679688 11.75 A 0.700005 0.700005 0 0 1 11.380859 12.449219 A 0.700005 0.700005 0 0 1 10.679688 13.150391 A 0.700005 0.700005 0 0 1 9.9804688 12.449219 A 0.700005 0.700005 0 0 1 10.679688 11.75 z M 12.900391 11.75 A 0.700005 0.700005 0 0 1 13.599609 12.449219 A 0.700005 0.700005 0 0 1 12.900391 13.150391 A 0.700005 0.700005 0 0 1 12.199219 12.449219 A 0.700005 0.700005 0 0 1 12.900391 11.75 z" transform="translate(4 4)"/>
</svg>
